modules/defaultemblems/img/Japanese_Crest_Ume.svg

<?xml version="1.0" encoding="UTF-8" standalone="no"?>
<!-- Created with Inkscape (http://www.inkscape.org/) -->
<!-- https://commons.wikimedia.org/wiki/File:Japanese_Crest_Ume.svg -->
<svg height="688" viewBox="0 0 688 688" width="688" xmlns="http://www.w3.org/2000/svg">
  <path class="emblem-color" d="m227.01733 613.12639c-19.28069-1.9511-37.70163-9.1835-53.60157-21.0451-5.65831-4.2212-15.54821-14.1114-19.8152-19.8158-15.30402-20.4594-22.85394-45.3476-21.08582-69.5092 1.96064-26.7925 12.1694-49.3659 30.67418-67.82621 8.95242-8.93091 19.20661-16.01629 30.53313-21.09763 6.20545-2.78394 113.44827-37.77262 113.67659-37.08778.71944 2.1579 5.07737 8.72332 7.62682 11.49014 1.75127 1.9006 3.18414 3.57209 3.18414 3.71447s-7.66463 10.75981-17.03251 23.59425c-17.30282 23.70572-18.29566 25.30077-16.84023 27.05445.68977.83112 2.72465.87841 3.7636.08743.4138-.31506 8.31737-11.01129 17.5635-23.76949 9.24612-12.75819 16.9667-23.36178 17.15684-23.56357.19014-.20178 1.78866.36222 3.55227 1.25335 3.27049 1.65251 8.41503 3.20978 12.37219 3.74506l2.2044.29822v57.00461c0 36.2398-.17655 58.7552-.48467 61.8106-3.35919 33.31-22.63146 62.9766-52.09062 80.1854-11.05592 6.4584-23.52509 10.7667-36.9927 12.7815-6.00735.8988-18.75771 1.2626-24.36434.6953zm214.87034-.0114c-10.89715-1.1323-21.74886-3.8639-31.15076-7.8412-30.52467-12.9129-53.55127-40.1056-61.12683-72.1861-2.87438-12.1722-2.80013-10.3176-2.96658-74.1021l-.1522-58.3233 2.68215-.32727c3.30981-.40384 10.33-2.64745 13.06244-4.17465 1.11915-.62549 2.18306-1.13728 2.36424-1.13728.18119 0 8.03849 10.64021 17.46067 23.64488 9.42219 13.00471 17.6068 23.90253 18.18803 24.21746.73569.39865 1.44071.43842 2.32041.13092 1.00428-.35099 1.2907-.7733 1.39551-2.05751.12004-1.47087-1.4289-3.75638-17.26409-25.47379l-17.39596-23.85794 3.26895-3.50034c3.05631-3.27271 7.35896-9.74931 7.35896-11.07715 0-.32439.25368-.58985.56373-.58985 1.4097 0 108.76011 35.18351 112.67248 36.92781 31.88858 14.21709 54.24448 42.47311 60.74168 76.77251 6.87813 36.31-6.86188 74.7372-35.21712 98.493-15.1022 12.6526-33.1417 20.8246-52.46902 23.7689-5.98244.9114-18.7392 1.2746-24.33669.693zm-283.78664-204.36874c-23.13433-2.94238-43.33044-12.51075-59.821513-28.34177-17.33242-16.63867-27.68938-36.74645-31.43324-61.02687-1.1274-7.31168-1.12855-21.44843-.00232-28.77313 4.72173-30.70908 20.71557-55.93395 46.241043-72.92963 31.71302-21.11554 74.372-22.72225 107.74585-4.05815 9.41649 5.26611 19.49237 13.16293 25.69335 20.13678 1.77825 1.99988 3.7278 4.15767 4.33233 4.79508.60454.63741 16.01836 21.70217 34.25296 46.81059l33.15381 45.65167-2.86473 3.11698c-2.98167 3.24423-5.40153 6.71974-7.07047 10.15493-.53754 1.10642-1.23637 2.01166-1.55295 2.01166-.31657 0-12.77963-3.96791-27.69568-8.81757-14.91604-4.84965-27.73039-8.81755-28.47633-8.81755s-1.60685.2506-1.91315.5569c-.8556.8556-.66148 2.91725.36189 3.84339.50533.45733 13.37793 4.86955 28.60578 9.80503 15.22784 4.93542 27.75076 9.03727 27.8287 9.11519.07794.07796-.0506.97123-.28565 1.98502-.51938 2.24017-.54921 12.25888-.04426 14.8622l.36484 1.88088-53.40651 17.35415c-29.37358 9.54479-54.86837 17.7314-56.65508 18.19251-10.6897 2.75874-26.80706 3.83374-37.35867 2.49171zm348.29415.12405c-8.97411-1.01036-15.30385-2.87365-69.4638-20.44805l-54.74259-17.76351.27627-1.39225c.6915-3.48475.77708-11.24041.1566-14.19119l-.64202-3.05325 27.82285-9.00371c15.30257-4.95209 28.31199-9.3885 28.90983-9.85876 1.18438-.93164 1.46372-3.00977.53008-3.94341-.3063-.3063-1.17047-.5569-1.92038-.5569s-12.63006 3.6661-26.40033 8.1469c-13.77027 4.48081-26.29053 8.53708-27.82278 9.01397l-2.78593.8671-.94378-2.13358c-1.47343-3.33095-3.85025-6.80002-6.87266-10.03099-1.52556-1.63083-2.77375-3.10494-2.77375-3.27581 0-.17086 15.28977-21.32064 33.97726-46.99951 27.84793-38.26641 34.85362-47.60341 38.83526-51.75856 13.4718-14.05891 30.06078-23.74167 49.07948-28.64701 9.36783-2.41616 14.57986-3.02433 25.91838-3.02433 11.29476 0 16.82757.64146 26.05581 3.02085 37.14189 9.57664 66.41094 39.25438 75.50209 76.55635 3.77342 15.48281 3.8795 32.69675.29627 48.08012-9.03847 38.80405-40.03744 69.63409-78.81764 78.38823-10.29175 2.3232-24.14239 3.13673-34.17452 2.0073zm-171.01452-14.7964c-11.72895-3.02638-20.83282-12.01696-24.20127-23.90013-1.46122-5.15485-1.46122-12.43849 0-17.59333 3.42377-12.07831 12.55052-20.96337 24.6331-23.98072 3.23079-.80682 4.84791-.93824 9.28165-.75428 9.23053.38296 15.84207 3.23336 22.34018 9.63138 10.49086 10.32937 13.08708 25.15129 6.70635 38.28683-4.60048 9.47072-12.32152 15.83501-22.24328 18.33466-4.83889 1.21905-11.73706 1.20889-16.51673-.02441zm-45.01603-111.42961c-17.99481-24.78274-33.36903-46.02579-34.16494-47.20678-8.16042-12.10872-13.9272-27.99415-16.0263-44.14676-.86074-6.62344-.73966-20.5202.23453-26.9168 3.41952-22.45291 13.10748-42.1681 28.58992-58.18105 15.96534-16.512405 36.7794-27.118925 60.34975-30.753295 7.25018-1.11793 21.35545-1.11669 28.98197.00255 47.48498 6.96867 83.53911 44.010905 89.38504 91.834755.82129 6.71873.3396 22.36563-.89643 29.11875-2.44769 13.37314-6.78646 24.80811-14.09005 37.13475-1.43358 2.41953-66.1318 92.11261-67.88792 94.11506-.07062.08052-1.35034-.46464-2.84383-1.21147-3.88432-1.94237-8.02658-3.27651-12.01463-3.86965l-3.46309-.51507v-30.01615c0-22.72712-.13523-30.15139-.5569-30.57306-.71937-.71937-3.27174-.71937-3.99111 0-.42167.42167-.5569 7.84659-.5569 30.576v30.01909l-2.57761.32205c-3.81052.4761-8.85668 1.97533-12.27304 3.64637-1.6591.81152-3.12096 1.52154-3.24858 1.57785-.12762.0563-14.95507-20.17441-32.94988-44.95714z" fill="#fff"/>
</svg>

<?xml version="1.0" encoding="UTF-8" standalone="no"?>
<!-- Created with Inkscape (http://www.inkscape.org/) -->
<!-- https://commons.wikimedia.org/wiki/File:Japanese_Crest_Ume.svg -->
<svg
   xmlns:svg="http://www.w3.org/2000/svg"
   xmlns="http://www.w3.org/2000/svg"
   version="1.0"
   viewBox="0 0 688 688"
   width="688"
   height="688"
   id="svg2611">
  <defs
     id="defs2614" />
  <path
    class="emblem-color"
     d="M 227.01733,613.12639 C 207.73664,611.17529 189.3157,603.94289 173.41576,592.08129 C 167.75745,587.86009 157.86755,577.96989 153.60056,572.26549 C 138.29654,551.80609 130.74662,526.91789 132.51474,502.75629 C 134.47538,475.96379 144.68414,453.39039 163.18892,434.93008 C 172.14134,425.99917 182.39553,418.91379 193.72205,413.83245 C 199.9275,411.04851 307.17032,376.05983 307.39864,376.74467 C 308.11808,378.90257 312.47601,385.46799 315.02546,388.23481 C 316.77673,390.13541 318.2096,391.8069 318.2096,391.94928 C 318.2096,392.09166 310.54497,402.70909 301.17709,415.54353 C 283.87427,439.24925 282.88143,440.8443 284.33686,442.59798 C 285.02663,443.4291 287.06151,443.47639 288.10046,442.68541 C 288.51426,442.37035 296.41783,431.67412 305.66396,418.91592 C 314.91008,406.15773 322.63066,395.55414 322.8208,395.35235 C 323.01094,395.15057 324.60946,395.71457 326.37307,396.6057 C 329.64356,398.25821 334.7881,399.81548 338.74526,400.35076 L 340.94966,400.64898 L 340.94966,457.65359 C 340.94966,493.89339 340.77311,516.40879 340.46499,519.46419 C 337.1058,552.77419 317.83353,582.44079 288.37437,599.64959 C 277.31845,606.10799 264.84928,610.41629 251.38167,612.43109 C 245.37432,613.32989 232.62396,613.69369 227.01733,613.12639 z M 441.88767,613.11499 C 430.99052,611.98269 420.13881,609.25109 410.73691,605.27379 C 380.21224,592.36089 357.18564,565.16819 349.61008,533.08769 C 346.7357,520.91549 346.80995,522.77009 346.6435,458.98559 L 346.4913,400.66229 L 349.17345,400.33502 C 352.48326,399.93118 359.50345,397.68757 362.23589,396.16037 C 363.35504,395.53488 364.41895,395.02309 364.60013,395.02309 C 364.78132,395.02309 372.63862,405.6633 382.0608,418.66797 C 391.48299,431.67268 399.6676,442.5705 400.24883,442.88543 C 400.98452,443.28408 401.68954,443.32385 402.56924,443.01635 C 403.57352,442.66536 403.85994,442.24305 403.96475,440.95884 C 404.08479,439.48797 402.53585,437.20246 386.70066,415.48505 L 369.3047,391.62711 L 372.57365,388.12677 C 375.62996,384.85406 379.93261,378.37746 379.93261,377.04962 C 379.93261,376.72523 380.18629,376.45977 380.49634,376.45977 C 381.90604,376.45977 489.25645,411.64328 493.16882,413.38758 C 525.0574,427.60467 547.4133,455.86069 553.9105,490.16009 C 560.78863,526.47009 547.04862,564.89729 518.69338,588.65309 C 503.59118,601.30569 485.55168,609.47769 466.22436,612.42199 C 460.24192,613.33339 447.48516,613.69659 441.88767,613.11499 z M 158.10103,408.74625 C 134.9667,405.80387 114.77059,396.2355 98.279517,380.40448 C 80.947097,363.76581 70.590137,343.65803 66.846277,319.37761 C 65.718877,312.06593 65.717727,297.92918 66.843957,290.60448 C 71.565687,259.8954 87.559527,234.67053 113.085,217.67485 C 144.79802,196.55931 187.457,194.9526 220.83085,213.6167 C 230.24734,218.88281 240.32322,226.77963 246.5242,233.75348 C 248.30245,235.75336 250.252,237.91115 250.85653,238.54856 C 251.46107,239.18597 266.87489,260.25073 285.10949,285.35915 L 318.2633,331.01082 L 315.39857,334.1278 C 312.4169,337.37203 309.99704,340.84754 308.3281,344.28273 C 307.79056,345.38915 307.09173,346.29439 306.77515,346.29439 C 306.45858,346.29439 293.99552,342.32648 279.07947,337.47682 C 264.16343,332.62717 251.34908,328.65927 250.60314,328.65927 C 249.8572,328.65927 248.99629,328.90987 248.68999,329.21617 C 247.83439,330.07177 248.02851,332.13342 249.05188,333.05956 C 249.55721,333.51689 262.42981,337.92911 277.65766,342.86459 C 292.8855,347.80001 305.40842,351.90186 305.48636,351.97978 C 305.5643,352.05774 305.43576,352.95101 305.20071,353.9648 C 304.68133,356.20497 304.6515,366.22368 305.15645,368.827 L 305.52129,370.70788 L 252.11478,388.06203 C 222.7412,397.60682 197.24641,405.79343 195.4597,406.25454 C 184.77,409.01328 168.65264,410.08828 158.10103,408.74625 z M 506.39518,408.8703 C 497.42107,407.85994 491.09133,405.99665 436.93138,388.42225 L 382.18879,370.65874 L 382.46506,369.26649 C 383.15656,365.78174 383.24214,358.02608 382.62166,355.0753 L 381.97964,352.02205 L 409.80249,343.01834 C 425.10506,338.06625 438.11448,333.62984 438.71232,333.15958 C 439.8967,332.22794 440.17604,330.14981 439.2424,329.21617 C 438.9361,328.90987 438.07193,328.65927 437.32202,328.65927 C 436.57211,328.65927 424.69196,332.32537 410.92169,336.80617 C 397.15142,341.28698 384.63116,345.34325 383.09891,345.82014 L 380.31298,346.68724 L 379.3692,344.55366 C 377.89577,341.22271 375.51895,337.75364 372.49654,334.52267 C 370.97098,332.89184 369.72279,331.41773 369.72279,331.24686 C 369.72279,331.076 385.01256,309.92622 403.70005,284.24735 C 431.54798,245.98094 438.55367,236.64394 442.53531,232.48879 C 456.00711,218.42988 472.59609,208.74712 491.61479,203.84178 C 500.98262,201.42562 506.19465,200.81745 517.53317,200.81745 C 528.82793,200.81745 534.36074,201.45891 543.58898,203.8383 C 580.73087,213.41494 609.99992,243.09268 619.09107,280.39465 C 622.86449,295.87746 622.97057,313.0914 619.38734,328.47477 C 610.34887,367.27882 579.3499,398.10886 540.5697,406.863 C 530.27795,409.1862 516.42731,409.99973 506.39518,408.8703 z M 335.38066,394.0739 C 323.65171,391.04752 314.54784,382.05694 311.17939,370.17377 C 309.71817,365.01892 309.71817,357.73528 311.17939,352.58044 C 314.60316,340.50213 323.72991,331.61707 335.81249,328.59972 C 339.04328,327.7929 340.6604,327.66148 345.09414,327.84544 C 354.32467,328.2284 360.93621,331.0788 367.43432,337.47682 C 377.92518,347.80619 380.5214,362.62811 374.14067,375.76365 C 369.54019,385.23437 361.81915,391.59866 351.89739,394.09831 C 347.0585,395.31736 340.16033,395.3072 335.38066,394.0739 z M 290.36463,282.64429 C 272.36982,257.86155 256.9956,236.6185 256.19969,235.43751 C 248.03927,223.32879 242.27249,207.44336 240.17339,191.29075 C 239.31265,184.66731 239.43373,170.77055 240.40792,164.37395 C 243.82744,141.92104 253.5154,122.20585 268.99784,106.1929 C 284.96318,89.680495 305.77724,79.073975 329.34759,75.439605 C 336.59777,74.321675 350.70304,74.322915 358.32956,75.442155 C 405.81454,82.410825 441.86867,119.45306 447.7146,167.27691 C 448.53589,173.99564 448.0542,189.64254 446.81817,196.39566 C 444.37048,209.7688 440.03171,221.20377 432.72812,233.53041 C 431.29454,235.94994 366.59632,325.64302 364.8402,327.64547 C 364.76958,327.72599 363.48986,327.18083 361.99637,326.434 C 358.11205,324.49163 353.96979,323.15749 349.98174,322.56435 L 346.51865,322.04928 L 346.51865,292.03313 C 346.51865,269.30601 346.38342,261.88174 345.96175,261.46007 C 345.24238,260.7407 342.69001,260.7407 341.97064,261.46007 C 341.54897,261.88174 341.41374,269.30666 341.41374,292.03607 L 341.41374,322.05516 L 338.83613,322.37721 C 335.02561,322.85331 329.97945,324.35254 326.56309,326.02358 C 324.90399,326.8351 323.44213,327.54512 323.31451,327.60143 C 323.18689,327.65773 308.35944,307.42702 290.36463,282.64429 z"
     id="path2622"
     style="fill:#ffffff" />
</svg>
